img/svg-grass.svg

<svg width="16" height="16" viewBox="0 0 16 16" fill="none" xmlns="http://www.w3.org/2000/svg">
<path fill-rule="evenodd" clip-rule="evenodd" d="M2.77564 13.9574C2.71863 13.9038 2.66224 13.8491 2.60651 13.7934C-0.335633 10.8513 -0.335632 6.0811 2.60651 3.13898C5.54863 0.196826 14.9234 0 14.9234 0C14.9234 0 16.2031 10.8513 13.2609 13.7934C10.6479 16.4064 6.59306 16.6987 3.65746 14.6704L6.02286 11.7676L9.80417 10.9512L6.71751 10.6426L8.67912 8.64535L10.912 8.1562L9.14638 7.6333L10.912 4.44811L8.40056 7.26513L7.43072 5.89656L7.77213 8.1562L6.02286 10.1282L5.212 7.63327V10.9512L2.77564 13.9574Z" fill="#73B861"/>
</svg>

<svg width="16" height="16" fill="none" xmlns="http://www.w3.org/2000/svg"><path fill-rule="evenodd" clip-rule="evenodd" d="M2.776 13.957a7.534 7.534 0 0 1-.17-10.818C5.55.197 14.924 0 14.924 0s1.28 10.851-1.662 13.793a7.536 7.536 0 0 1-9.604.877l2.366-2.902 3.781-.817-3.086-.308 1.961-1.998 2.233-.489-1.766-.523 1.766-3.185-2.511 2.817-.97-1.368.341 2.26-1.75 1.971-.81-2.495v3.318l-2.436 3.006Z" fill="#73B861"/></svg>
